X:146
T:Kiss me fast,my Mother is Coming. RH.146
R:Jig
S:Rev.R.Harrison’s MS,c1815,Cumbria
O:England
A:Temple Sowerby,Cumbria
Z:vmp.Simon Wilson. Review PJH, 2008.
M:6/8
L:1/8
Q:3/8=120
K:D
D2A F2A|E2F GFE|D2A F2A|D2A F2A|\
BGB AFD|E2F GFE|dcB AFA|D2A AFD:|!
|:d2a (f/g/a).f|e2f gfe|d2a (f/g/a).f|\
d2a (f/g/a).f|gbg faf|e2f gfe|dcB AFA|D2A AFD:|

